X:18800
T:Willie D .s Favourite (aka: The Mirimichi Fire)
R:pipe reel
C:traditional
S:Tune ofthe Month, October 1999
D:Some Tasty Tunes, Brenda Stubbert, 1999
A:http://www.capebretonisland.com/Music/Stubbert
N:Contacts ...
N:Recordings and bookings
N:..... <brenda@cranfordpub.com
N:Tune books and related recordings
N:..... Cranford Publications <http://www.cranfordpub.com>
Z:Paul Stewart Cranford 
Q:333
L:1/8
M:C|
K:Amix
Ad|ce e/e/e Aced|cAeA c2 BA|ce e/e/e Acec|BGdc B2AB|!
ce e/e/e Aced|cAeA c2 BA|cdec dBGB|A/A/A cB A2:|!
|:f^g|abaf e2 ed|cAeA cdef|gage dddc|BGdG Bcdg|!
abaf e2 ed|cAeA cdef|gage dBGB|A2 cB A2:|!
